X:39
T:La Mouche
C:Traditioneel
O:Gent, Vlaanderen
B:Gentse Contradansen, Muziekmoza\"iek
Z:Bert Van Vreckem <http://flanders.blackmill.net/music/>
M:6/8
L:1/8
Q:3/8=126
%%staves [ 1 2 ]
P:AABB
K:E
P:A
% 1
V:1
B|"E"MB2e Me2g|Mg3 b2B|"A"c{/b}ag "B"fed |"E"eBG E2B|\
V:2 clef=bass middle=D
z|    EBG  E2z|EBG E2G|   A2A        B2B,|   E3  z2z|\
% 5
V:1
"E"MB2e Me2g|Mg3 b2B|"A"cag "B"fed |"E"e3    e2 ::f|
V:2
    EBG  E2z|EBG E2G|   A2A    B2B,|   EB,G, E,2::z|
% 9
P:B
V:1
"E"geB E2g|"B"fdB B,2f|"E"gfe dcB|"F#"^ABc F2e|\
V:2
   EEE EEE|   DDD DDD |   EEE EEE|     FFF FFF|\
% 13
V:1
!f!Fec' "(B)"Fdb|"F#"Fec' "(B)"Fdb|"E"gfe "F#"Pc3|"B"B3  B2B|
V:2
   FFF       FFF|    FFF       FFF|   EEE     FFF|   BFD B,2z|
%17
V:1
"E"MB2e Me2g|Mg3 b2B|"A"cag "B"fed|"E"eBG E2B|\
V:2
    EBG  E2z|EBG E2G|   A2A   B2B,|   E3  z2z|\
%21
V:1
"E"MB2e Me2g|Mg3 b2B|"A"c{/b}ag "B"fed|"E"e3    e2:|
V:2
    EBG  E2z|EBG E2G|   A2A       B2B,|   EB,G, E,2:|

